svg/u0039.svg

<svg viewBox="0 0 128 128" xmlns="http://www.w3.org/2000/svg">
  <linearGradient id="SVGID_1_" gradientTransform="matrix(1 0 0 -1 0 128)" gradientUnits="userSpaceOnUse" x1="64.005" x2="64.005" y1="101.667" y2="24.97">
    <stop offset="0" stop-color="#757575"/>
    <stop offset="0.5148" stop-color="#504F4F"/>
  </linearGradient>
  <path d="M75.34,74.48c0.24-1.31-1.29-2.26-2.34-1.45c-3.5,2.7-7.43,4.05-11.79,4.05 c-6.56,0-11.79-2.3-15.69-6.9s-5.85-10.64-5.85-18.13c0-4.92,0.99-9.38,2.97-13.38s4.8-7.11,8.46-9.33C54.76,27.11,59,26,63.82,26 c7.52,0,13.49,2.8,17.9,8.41s6.62,13.11,6.62,22.51v3.49c0,13.47-3.04,23.74-9.13,30.82S64.04,101.9,51.97,102 c-0.82,0-1.48-0.66-1.48-1.48v-7.34c0-0.82,0.66-1.48,1.48-1.48h0.31c7.35-0.1,12.99-1.87,16.92-5.31 C72.36,83.62,74.41,79.66,75.34,74.48L75.34,74.48z M64.09,67.3c2.37-0.05,4.6-0.76,6.69-2.13c0.02-0.01,0.04-0.03,0.06-0.04 c3.18-2.11,4.96-5.78,4.96-9.6v-1.08c0-5.45-1.12-9.83-3.35-13.15s-5.13-4.98-8.68-4.98s-6.39,1.46-8.51,4.39s-3.17,6.63-3.17,11.1 c0,4.7,1.1,8.48,3.29,11.34C57.43,65.83,60.72,67.37,64.09,67.3z" fill="url(#SVGID_1_)"/>
</svg>

<svg viewBox="0 0 128 128" xmlns="http://www.w3.org/2000/svg">
  <defs>
    <linearGradient id="SVGID_1_" gradientTransform="matrix(1 0 0 -1 0 0)" gradientUnits="userSpaceOnUse" x1="64.005" x2="64.005" y1="-26.333" y2="-103.03">
      <stop offset="0" stop-color="#757575"/>
      <stop offset="0.5148" stop-color="#504F4F"/>
    </linearGradient>
  </defs>
  <path d="M75.34,74.48 C75.58,73.17 74.05,72.22 73,73.03 C69.5,75.73 65.57,77.08 61.21,77.08 C54.65,77.08 49.42,74.78 45.52,70.18 C41.62,65.58 39.67,59.54 39.67,52.05 C39.67,47.13 40.66,42.67 42.64,38.67 C44.62,34.67 47.44,31.56 51.1,29.34 C54.76,27.11 59,26 63.82,26 C71.34,26 77.31,28.8 81.72,34.41 C86.13,40.02 88.34,47.52 88.34,56.92 L88.34,60.41 C88.34,73.88 85.3,84.15 79.21,91.23 C73.12,98.31 64.04,101.9 51.97,102 C51.15,102 50.49,101.34 50.49,100.52 L50.49,93.18 C50.49,92.36 51.15,91.7 51.97,91.7 L52.28,91.7 C59.63,91.6 65.27,89.83 69.2,86.39 C72.36,83.62 74.41,79.66 75.34,74.48 L75.34,74.48 Z M64.09,67.3 C66.46,67.25 68.69,66.54 70.78,65.17 C70.8,65.16 70.82,65.14 70.84,65.13 C74.02,63.02 75.8,59.35 75.8,55.53 L75.8,54.45 C75.8,49 74.68,44.62 72.45,41.3 C70.22,37.98 67.32,36.32 63.77,36.32 C60.22,36.32 57.38,37.78 55.26,40.71 C53.14,43.64 52.09,47.34 52.09,51.81 C52.09,56.51 53.19,60.29 55.38,63.15 C57.43,65.83 60.72,67.37 64.09,67.3 Z" fill="url(#SVGID_1_)"/>
</svg>
